svg/flash_triangle_outline.svg

<svg xmlns="http://www.w3.org/2000/svg" viewBox="0 0 24 24"><path d="M12 2 1 21h22M12 6l7.5 13h-15m9.5-5h-1.5l1.5-3h-4v4h1v3z"/></svg>

<svg xmlns="http://www.w3.org/2000/svg" id="mdi-flash-triangle-outline" viewBox="0 0 24 24"><path d="M12 2L1 21H23M12 6L19.5 19H4.5M14 14H12.5L14 11H10V15H11V18L14 14Z" /></svg>
